configs/network-logos/fvm-logo-dark.svg

<svg width="109" height="24" viewBox="0 0 109 24" fill="none" xmlns="http://www.w3.org/2000/svg">
<path d="M59.0522 10.3297V4.46058H60.0003V5.22807C60.1884 4.94214 60.4593 4.72394 60.813 4.57345C61.1741 4.41543 61.5729 4.33643 62.0094 4.33643C63.597 4.33643 64.3908 5.22055 64.3908 6.9888V10.3297H63.4428V7.10166C63.4428 6.45456 63.2998 5.98052 63.0139 5.67954C62.7355 5.37856 62.3066 5.22807 61.7272 5.22807C61.366 5.22807 61.0274 5.33718 60.7114 5.55539C60.3954 5.7736 60.1583 6.05953 60.0003 6.41318V10.3297H59.0522Z" fill="black" stroke="black" stroke-width="0.2"/>
<path d="M56.4669 10.3296V4.4605H57.415V10.3296H56.4669ZM56.3428 2.55305C56.3428 2.39503 56.3992 2.26336 56.5121 2.15801C56.6325 2.05267 56.7792 2 56.9523 2C57.1103 2 57.2457 2.05267 57.3586 2.15801C57.479 2.26336 57.5392 2.39503 57.5392 2.55305C57.5392 2.71858 57.479 2.85779 57.3586 2.97065C57.2457 3.08352 57.1103 3.13995 56.9523 3.13995C56.7792 3.13995 56.6325 3.08352 56.5121 2.97065C56.3992 2.85779 56.3428 2.71858 56.3428 2.55305Z" fill="black" stroke="black" stroke-width="0.2"/>
<path d="M48.9193 7.3837C48.9193 6.48829 49.2052 5.75466 49.7771 5.1828C50.3565 4.61094 51.1052 4.32501 52.0231 4.32501C52.9487 4.32501 53.7011 4.61094 54.2805 5.1828C54.8599 5.75466 55.1496 6.48829 55.1496 7.3837C55.1496 8.27159 54.8561 9.00146 54.2692 9.57332C53.6898 10.1452 52.9411 10.4311 52.0231 10.4311C51.1127 10.4311 50.3678 10.1452 49.7884 9.57332C49.209 9.00146 48.9193 8.27159 48.9193 7.3837ZM49.9238 7.3837C49.9238 8.00823 50.1195 8.52366 50.5107 8.92998C50.902 9.3363 51.4061 9.53946 52.0231 9.53946C52.6477 9.53946 53.1556 9.34006 53.5469 8.94126C53.9456 8.54247 54.145 8.02328 54.145 7.3837C54.145 6.74412 53.9419 6.22494 53.5356 5.82614C53.1368 5.41982 52.6326 5.21666 52.0231 5.21666C51.4137 5.21666 50.9095 5.41606 50.5107 5.81485C50.1195 6.21365 49.9238 6.7366 49.9238 7.3837Z" fill="black" stroke="black" stroke-width="0.2"/>
<path d="M47.7023 8.63652L48.3795 9.12185C48.1613 9.5357 47.8264 9.85925 47.375 10.0925C46.9235 10.3182 46.4532 10.4311 45.9641 10.4311C45.0236 10.4311 44.2636 10.1565 43.6842 9.60718C43.1123 9.05037 42.8264 8.30921 42.8264 7.3837C42.8264 6.50334 43.1123 5.77347 43.6842 5.19409C44.2561 4.6147 44.9972 4.32501 45.9077 4.32501C46.4344 4.32501 46.9122 4.43412 47.3411 4.65232C47.7775 4.87053 48.0935 5.16023 48.2892 5.5214L47.5555 6.01801C47.1643 5.48378 46.6225 5.21666 45.9303 5.21666C45.3208 5.21666 44.8166 5.41982 44.4178 5.82614C44.0266 6.23246 43.8309 6.75165 43.8309 7.3837C43.8309 8.03081 44.0341 8.55375 44.4404 8.95255C44.8543 9.34382 45.3923 9.53946 46.0544 9.53946C46.7542 9.53946 47.3035 9.23848 47.7023 8.63652Z" fill="black" stroke="black" stroke-width="0.2"/>
<path d="M41.2339 8.64781L41.8434 9.21214C41.3017 10.0248 40.5191 10.4311 39.4958 10.4311C38.5552 10.4311 37.799 10.1565 37.2272 9.60718C36.6553 9.05037 36.3694 8.30921 36.3694 7.3837C36.3694 6.48829 36.629 5.75466 37.1482 5.1828C37.6749 4.61094 38.4123 4.32501 39.3604 4.32501C40.1429 4.32501 40.79 4.56956 41.3017 5.05865C41.8133 5.54774 42.0692 6.19108 42.0692 6.98867C42.0692 7.2445 42.0503 7.48152 42.0127 7.69973H37.3852C37.4153 8.27911 37.626 8.73058 38.0172 9.05413C38.4085 9.37768 38.9127 9.53946 39.5297 9.53946C39.8758 9.53946 40.1993 9.45669 40.5003 9.29115C40.8088 9.12561 41.0534 8.91117 41.2339 8.64781ZM39.2926 5.19409C38.7584 5.19409 38.322 5.34457 37.9834 5.64555C37.6523 5.94653 37.4491 6.34533 37.3739 6.84194H41.0646C41.0345 6.32275 40.8615 5.9202 40.5455 5.63427C40.237 5.34081 39.8193 5.19409 39.2926 5.19409Z" fill="black" stroke="black" stroke-width="0.2"/>
<path d="M34.144 10.3296V2.09033H35.0921V10.3296H34.144Z" fill="black" stroke="black" stroke-width="0.2"/>
<path d="M31.4686 10.3296V4.4605H32.4167V10.3296H31.4686ZM31.3445 2.55305C31.3445 2.39503 31.4009 2.26336 31.5138 2.15801C31.6342 2.05267 31.7809 2 31.954 2C32.112 2 32.2474 2.05267 32.3603 2.15801C32.4807 2.26336 32.5409 2.39503 32.5409 2.55305C32.5409 2.71858 32.4807 2.85779 32.3603 2.97065C32.2474 3.08352 32.112 3.13995 31.954 3.13995C31.7809 3.13995 31.6342 3.08352 31.5138 2.97065C31.4009 2.85779 31.3445 2.71858 31.3445 2.55305Z" fill="black" stroke="black" stroke-width="0.2"/>
<path d="M24.5719 10.3297V2.42902H30.2491V3.38838H25.6103V6.09719H29.9331V7.05656H25.6103V10.3297H24.5719Z" fill="black" stroke="black" stroke-width="0.2"/>
<path d="M106.318 20.2168L106.927 20.7811C106.385 21.5938 105.603 22.0001 104.58 22.0001C103.639 22.0001 102.883 21.7254 102.311 21.1761C101.739 20.6193 101.453 19.8782 101.453 18.9527C101.453 18.0573 101.713 17.3236 102.232 16.7518C102.759 16.1799 103.496 15.894 104.444 15.894C105.227 15.894 105.874 16.1385 106.385 16.6276C106.897 17.1167 107.153 17.76 107.153 18.5576C107.153 18.8135 107.134 19.0505 107.096 19.2687H102.469C102.499 19.8481 102.71 20.2995 103.101 20.6231C103.492 20.9467 103.996 21.1084 104.613 21.1084C104.96 21.1084 105.283 21.0257 105.584 20.8601C105.893 20.6946 106.137 20.4801 106.318 20.2168ZM104.376 16.7631C103.842 16.7631 103.406 16.9135 103.067 17.2145C102.736 17.5155 102.533 17.9143 102.458 18.4109H106.148C106.118 17.8917 105.945 17.4892 105.629 17.2032C105.321 16.9098 104.903 16.7631 104.376 16.7631Z" fill="black" stroke="black" stroke-width="0.2"/>
<path d="M94.9932 21.8984V16.0294H95.9412V16.7969C96.1294 16.5109 96.4002 16.2927 96.7539 16.1422C97.1151 15.9842 97.5139 15.9052 97.9503 15.9052C99.5379 15.9052 100.332 16.7893 100.332 18.5576V21.8984H99.3837V18.6704C99.3837 18.0233 99.2407 17.5493 98.9548 17.2483C98.6764 16.9474 98.2475 16.7969 97.6681 16.7969C97.3069 16.7969 96.9683 16.906 96.6523 17.1242C96.3363 17.3424 96.0993 17.6283 95.9412 17.982V21.8984H94.9932Z" fill="black" stroke="black" stroke-width="0.2"/>
<path d="M92.4078 21.8984V16.0293H93.3559V21.8984H92.4078ZM92.2837 14.1219C92.2837 13.9639 92.3401 13.8322 92.453 13.7269C92.5734 13.6215 92.7201 13.5688 92.8932 13.5688C93.0512 13.5688 93.1866 13.6215 93.2995 13.7269C93.4199 13.8322 93.4801 13.9639 93.4801 14.1219C93.4801 14.2874 93.4199 14.4266 93.2995 14.5395C93.1866 14.6524 93.0512 14.7088 92.8932 14.7088C92.7201 14.7088 92.5734 14.6524 92.453 14.5395C92.3401 14.4266 92.2837 14.2874 92.2837 14.1219Z" fill="black" stroke="black" stroke-width="0.2"/>
<path d="M85.5074 21.8984V13.6591H86.4555V16.7968C86.907 16.2024 87.5428 15.9052 88.363 15.9052C90.0108 15.9052 90.8348 16.7931 90.8348 18.5688V21.8984H89.8867V18.6591C89.8867 18.0271 89.7475 17.5605 89.4691 17.2596C89.1907 16.9511 88.7618 16.7968 88.1824 16.7968C87.7911 16.7968 87.445 16.9097 87.144 17.1354C86.843 17.3612 86.6135 17.6546 86.4555 18.0158V21.8984H85.5074Z" fill="black" stroke="black" stroke-width="0.2"/>
<path d="M83.9076 20.2055L84.5848 20.6908C84.3666 21.1047 84.0317 21.4282 83.5803 21.6615C83.1288 21.8872 82.6585 22.0001 82.1694 22.0001C81.2289 22.0001 80.4689 21.7254 79.8895 21.1761C79.3177 20.6193 79.0317 19.8782 79.0317 18.9527C79.0317 18.0723 79.3177 17.3424 79.8895 16.7631C80.4614 16.1837 81.2025 15.894 82.113 15.894C82.6397 15.894 83.1175 16.0031 83.5464 16.2213C83.9828 16.4395 84.2989 16.7292 84.4945 17.0904L83.7609 17.587C83.3696 17.0527 82.8278 16.7856 82.1356 16.7856C81.5261 16.7856 81.022 16.9888 80.6232 17.3951C80.2319 17.8014 80.0363 18.3206 80.0363 18.9527C80.0363 19.5998 80.2394 20.1227 80.6457 20.5215C81.0596 20.9128 81.5976 21.1084 82.2597 21.1084C82.9595 21.1084 83.5088 20.8074 83.9076 20.2055Z" fill="black" stroke="black" stroke-width="0.2"/>
<path d="M73.6406 17.4403L73.1552 16.7292C73.4261 16.4734 73.776 16.2702 74.2049 16.1197C74.6338 15.9692 75.0664 15.894 75.5029 15.894C76.2854 15.894 76.8798 16.1009 77.2862 16.5147C77.7 16.9286 77.9069 17.5155 77.9069 18.2755V21.8985H76.9588V21.0294C76.7707 21.3003 76.4998 21.526 76.1462 21.7066C75.7926 21.8872 75.3787 21.9775 74.9047 21.9775C74.2651 21.9775 73.7497 21.8157 73.3584 21.4922C72.9671 21.1611 72.7715 20.7247 72.7715 20.1829C72.7715 19.5659 73.0198 19.1107 73.5164 18.8172C74.013 18.5163 74.7015 18.3658 75.5819 18.3658C76.1312 18.3658 76.5901 18.4222 76.9588 18.5351C76.9588 17.9632 76.8422 17.5306 76.609 17.2371C76.3757 16.9361 75.9694 16.7856 75.39 16.7856C74.8031 16.7856 74.2199 17.0038 73.6406 17.4403ZM75.1304 21.1197C75.5743 21.1197 75.9581 20.9993 76.2816 20.7585C76.6127 20.5178 76.8385 20.2544 76.9588 19.9685V19.3703C76.6353 19.2574 76.2177 19.201 75.706 19.201C74.4193 19.201 73.776 19.517 73.776 20.1491C73.776 20.45 73.9001 20.6871 74.1485 20.8601C74.3968 21.0332 74.7241 21.1197 75.1304 21.1197Z" fill="black" stroke="black" stroke-width="0.2"/>
<path d="M63.7487 21.8985V13.9978H64.6967L67.699 17.9707L70.5997 13.9978H71.5252V21.8985H70.4981V15.7698L67.8006 19.4041H67.5523L64.7757 15.7698V21.8985H63.7487Z" fill="black" stroke="black" stroke-width="0.2"/>
<path d="M57.5243 21.8984V13.6591H58.4724V21.8984H57.5243Z" fill="black" stroke="black" stroke-width="0.2"/>
<path d="M51.715 17.4403L51.2297 16.7292C51.5006 16.4734 51.8505 16.2702 52.2794 16.1197C52.7083 15.9692 53.1409 15.894 53.5773 15.894C54.3599 15.894 54.9543 16.1009 55.3606 16.5147C55.7745 16.9286 55.9814 17.5155 55.9814 18.2755V21.8985H55.0333V21.0294C54.8452 21.3003 54.5743 21.526 54.2207 21.7066C53.867 21.8872 53.4532 21.9775 52.9791 21.9775C52.3396 21.9775 51.8241 21.8157 51.4329 21.4922C51.0416 21.1611 50.8459 20.7247 50.8459 20.1829C50.8459 19.5659 51.0943 19.1107 51.5909 18.8172C52.0875 18.5163 52.776 18.3658 53.6563 18.3658C54.2056 18.3658 54.6646 18.4222 55.0333 18.5351C55.0333 17.9632 54.9167 17.5306 54.6834 17.2371C54.4502 16.9361 54.0438 16.7856 53.4645 16.7856C52.8775 16.7856 52.2944 17.0038 51.715 17.4403ZM53.2049 21.1197C53.6488 21.1197 54.0326 20.9993 54.3561 20.7585C54.6872 20.5178 54.9129 20.2544 55.0333 19.9685V19.3703C54.7098 19.2574 54.2921 19.201 53.7805 19.201C52.4938 19.201 51.8505 19.517 51.8505 20.1491C51.8505 20.45 51.9746 20.6871 52.2229 20.8601C52.4712 21.0332 52.7985 21.1197 53.2049 21.1197Z" fill="black" stroke="black" stroke-width="0.2"/>
<path d="M49.7565 15.9955V21.8985H48.8084V21.0633C48.3569 21.6878 47.7211 22.0001 46.9009 22.0001C46.0883 22.0001 45.4826 21.7894 45.0838 21.368C44.685 20.9466 44.4856 20.2882 44.4856 19.3928V15.9955H45.4337V19.2574C45.4337 20.4914 45.9491 21.1084 46.98 21.1084C47.3863 21.1084 47.7474 20.9993 48.0635 20.7811C48.3795 20.5554 48.6278 20.2393 48.8084 19.833V15.9955H49.7565Z" fill="black" stroke="black" stroke-width="0.2"/>
<path d="M39.0632 16.9323V16.0293H40.2822V14.5282H41.2303V16.0293H43.2506V16.9323H41.2303V19.5169C41.2303 20.0888 41.3093 20.4913 41.4673 20.7246C41.6253 20.9578 41.8849 21.0745 42.2461 21.0745C42.5997 21.0745 42.9534 20.9353 43.307 20.6569L43.7359 21.3566C43.3597 21.7705 42.8066 21.9774 42.0768 21.9774C41.4974 21.9774 41.0535 21.7893 40.7449 21.4131C40.4364 21.0369 40.2822 20.4876 40.2822 19.7652V16.9323H39.0632Z" fill="black" stroke="black" stroke-width="0.2"/>
<path d="M35.3324 21.8984V16.0294H36.2805V16.4808C36.3783 16.2852 36.5401 16.1422 36.7658 16.0519C36.9915 15.9541 37.2323 15.9052 37.4882 15.9052C38.0073 15.9052 38.4061 16.082 38.6845 16.4357L38.0863 17.0903C37.9434 16.8947 37.7101 16.7969 37.3866 16.7969C37.1307 16.7969 36.8975 16.8909 36.6868 17.079C36.4836 17.2671 36.3482 17.5117 36.2805 17.8127V21.8984H35.3324Z" fill="black" stroke="black" stroke-width="0.2"/>
<path d="M32.7472 21.8984V16.0293H33.6953V21.8984H32.7472ZM32.623 14.1219C32.623 13.9639 32.6795 13.8322 32.7923 13.7269C32.9127 13.6215 33.0595 13.5688 33.2325 13.5688C33.3905 13.5688 33.526 13.6215 33.6388 13.7269C33.7592 13.8322 33.8194 13.9639 33.8194 14.1219C33.8194 14.2874 33.7592 14.4266 33.6388 14.5395C33.526 14.6524 33.3905 14.7088 33.2325 14.7088C33.0595 14.7088 32.9127 14.6524 32.7923 14.5395C32.6795 14.4266 32.623 14.2874 32.623 14.1219Z" fill="black" stroke="black" stroke-width="0.2"/>
<path d="M31.84 13.9978L28.2283 21.8985H27.4834L23.691 13.9978H24.7971L27.8784 20.4538L30.7678 13.9978H31.84Z" fill="black" stroke="black" stroke-width="0.2"/>
<path d="M15.814 18.5515L12.7265 20.3677V24L15.814 22.1839V18.5515Z" fill="#72EA9A"/>
<path d="M3.64563 11.65L0.558143 13.4662V17.0985L3.64563 15.2824V11.65Z" fill="#72EA9A"/>
<path d="M12.7264 20.3676L0.558109 13.4662V17.0985L12.7264 24V20.3676Z" fill="#1A3A96"/>
<path d="M15.814 18.5515L3.64563 11.65L0.558145 13.4662L12.7265 20.3676L15.814 18.5515Z" fill="url(#paint0_linear_11192_5630)"/>
<path d="M0 13.0233L3.16279 14.8837V18.6047L0 16.7442V13.0233Z" fill="url(#paint1_linear_11192_5630)"/>
<path d="M12.4651 5.95349L15.6279 7.81396V11.5349L12.4651 9.67442V5.95349Z" fill="#72EA9A"/>
<path d="M3.16272 14.8837L15.6278 7.81396V11.5349L3.16272 18.6047V14.8837Z" fill="#1A3A96"/>
<path d="M0 13.0233L12.4651 5.95349L15.6279 7.81396L3.16279 14.8837L0 13.0233Z" fill="url(#paint2_linear_11192_5630)"/>
<path d="M0 7.06976L3.16279 8.93023V12.6512L0 10.7907V7.06976Z" fill="#72EA9A"/>
<path d="M12.4651 0L15.6279 1.86047V5.5814L12.4651 3.72093V0Z" fill="#72EA9A"/>
<path d="M3.16272 8.93024L15.6278 1.86047V5.5814L3.16272 12.6512V8.93024Z" fill="#1A3A96"/>
<path d="M0 7.06977L12.4651 0L15.6279 1.86047L3.16279 8.93023L0 7.06977Z" fill="url(#paint3_linear_11192_5630)"/>
<defs>
<linearGradient id="paint0_linear_11192_5630" x1="0.830571" y1="13.0122" x2="17.5393" y2="17.6434" gradientUnits="userSpaceOnUse">
<stop offset="0.50047" stop-color="#5A92ED"/>
<stop offset="1" stop-color="#71E49F"/>
</linearGradient>
<linearGradient id="paint1_linear_11192_5630" x1="0.651163" y1="13.0233" x2="1.95349" y2="18.3256" gradientUnits="userSpaceOnUse">
<stop stop-color="#72E79D"/>
<stop offset="1" stop-color="#5C97E8"/>
</linearGradient>
<linearGradient id="paint2_linear_11192_5630" x1="20.1861" y1="6.23256" x2="1.95349" y2="11.5349" gradientUnits="userSpaceOnUse">
<stop stop-color="#70E1A1"/>
<stop offset="1" stop-color="#5C99E9"/>
</linearGradient>
<linearGradient id="paint3_linear_11192_5630" x1="15.3488" y1="1.39535" x2="-1.76744" y2="6.13954" gradientUnits="userSpaceOnUse">
<stop stop-color="#5C99E9"/>
<stop offset="1" stop-color="#72EA9A"/>
</linearGradient>
</defs>
</svg>

<svg xmlns="http://www.w3.org/2000/svg" fill="none" viewBox="0 0 109 24">
  <path fill="#000" stroke="#000" stroke-width=".2" d="M59.052 10.33V4.46H60v.768c.188-.286.46-.504.813-.655.361-.158.76-.237 1.196-.237 1.588 0 2.382.885 2.382 2.653v3.34h-.948V7.103c0-.647-.143-1.121-.43-1.422-.277-.301-.706-.452-1.286-.452-.361 0-.7.11-1.016.327a2.028 2.028 0 0 0-.71.858v3.917h-.949Zm-2.585 0V4.46h.948v5.87h-.948Zm-.124-7.777c0-.158.056-.29.17-.395a.645.645 0 0 1 .44-.158c.157 0 .293.053.406.158.12.105.18.237.18.395a.55.55 0 0 1-.18.418.554.554 0 0 1-.407.169.62.62 0 0 1-.44-.17.567.567 0 0 1-.17-.417ZM48.92 7.384c0-.896.285-1.63.857-2.201.58-.572 1.328-.858 2.246-.858.926 0 1.678.286 2.258.858.579.572.869 1.305.869 2.2 0 .889-.294 1.618-.88 2.19-.58.572-1.329.858-2.247.858-.91 0-1.655-.286-2.235-.858-.579-.572-.869-1.301-.869-2.19Zm1.004 0c0 .624.196 1.14.587 1.546.391.406.895.61 1.512.61.625 0 1.133-.2 1.524-.599.399-.399.598-.918.598-1.557 0-.64-.203-1.16-.61-1.558-.398-.406-.902-.61-1.512-.61s-1.114.2-1.512.599c-.392.399-.587.922-.587 1.569Zm-2.222 1.253.678.485a2.282 2.282 0 0 1-1.005.97 3.117 3.117 0 0 1-1.41.34c-.941 0-1.701-.276-2.28-.825-.573-.557-.859-1.298-.859-2.223 0-.88.286-1.61.858-2.19.572-.58 1.313-.869 2.224-.869.526 0 1.004.11 1.433.327.437.219.752.508.948.87l-.733.496c-.392-.534-.933-.801-1.626-.801-.61 0-1.113.203-1.512.61-.391.405-.587.925-.587 1.557 0 .647.203 1.17.61 1.569.413.39.951.586 1.613.586.7 0 1.25-.3 1.648-.902Zm-6.468.011.61.564c-.542.813-1.325 1.22-2.348 1.22-.94 0-1.697-.276-2.269-.825-.572-.557-.858-1.298-.858-2.223 0-.896.26-1.63.78-2.201.526-.572 1.263-.858 2.211-.858.783 0 1.43.245 1.942.734.511.489.767 1.132.767 1.93 0 .256-.019.493-.056.71h-4.628c.03.58.241 1.032.632 1.355.391.324.896.485 1.513.485.346 0 .67-.082.97-.248.309-.165.553-.38.734-.643Zm-1.941-3.454c-.535 0-.971.15-1.31.452-.33.3-.534.7-.61 1.196h3.692c-.03-.52-.203-.922-.52-1.208-.308-.293-.726-.44-1.252-.44Zm-5.149 5.136V2.09h.948v8.24h-.948Zm-2.675 0V4.46h.948v5.87h-.948Zm-.125-7.777c0-.158.057-.29.17-.395a.645.645 0 0 1 .44-.158c.158 0 .293.053.406.158.12.105.18.237.18.395a.55.55 0 0 1-.18.418.554.554 0 0 1-.406.169.62.62 0 0 1-.44-.17.567.567 0 0 1-.17-.417Zm-6.772 7.777V2.429h5.677v.96H25.61v2.708h4.323v.96H25.61v3.273h-1.038Zm81.746 9.887.609.564c-.542.813-1.324 1.22-2.347 1.22-.941 0-1.697-.276-2.269-.825-.572-.557-.858-1.298-.858-2.223 0-.896.26-1.63.779-2.201.527-.572 1.264-.858 2.212-.858.783 0 1.43.245 1.941.734.512.489.768 1.132.768 1.93 0 .256-.019.492-.057.71h-4.627c.03.58.241 1.031.632 1.355.391.324.895.485 1.512.485.347 0 .67-.082.971-.248a2.04 2.04 0 0 0 .734-.643Zm-1.942-3.454c-.534 0-.97.15-1.309.451-.331.302-.534.7-.609 1.197h3.69c-.03-.52-.203-.922-.519-1.208-.308-.293-.726-.44-1.253-.44Zm-9.383 5.135V16.03h.948v.768c.188-.286.46-.504.813-.655.361-.158.76-.237 1.196-.237 1.588 0 2.382.884 2.382 2.653v3.34h-.948V18.67c0-.647-.143-1.12-.43-1.422-.278-.3-.706-.451-1.286-.451-.361 0-.7.109-1.016.327a2.028 2.028 0 0 0-.71.858v3.916h-.949Zm-2.585 0V16.03h.948v5.87h-.948Zm-.124-7.776c0-.158.056-.29.169-.395a.645.645 0 0 1 .44-.158.57.57 0 0 1 .406.158c.12.105.181.237.181.395a.55.55 0 0 1-.18.418.554.554 0 0 1-.407.169.62.62 0 0 1-.44-.17.567.567 0 0 1-.17-.417Zm-6.777 7.776V13.66h.948v3.138c.452-.595 1.088-.892 1.908-.892 1.648 0 2.472.888 2.472 2.664v3.33h-.948v-3.24c0-.632-.14-1.098-.418-1.4-.278-.308-.707-.462-1.287-.462-.39 0-.737.113-1.038.338a2.16 2.16 0 0 0-.689.88v3.883h-.948Zm-1.599-1.692.677.485a2.282 2.282 0 0 1-1.005.97 3.117 3.117 0 0 1-1.41.34c-.941 0-1.701-.276-2.28-.825-.572-.557-.858-1.298-.858-2.223 0-.88.286-1.61.858-2.19.571-.58 1.313-.869 2.223-.869.527 0 1.005.11 1.433.327.437.218.753.508.948.87l-.733.496c-.391-.534-.933-.801-1.625-.801-.61 0-1.114.203-1.513.61-.391.405-.587.925-.587 1.557 0 .647.203 1.17.61 1.569.414.39.952.586 1.614.586.7 0 1.249-.3 1.648-.902ZM73.64 17.44l-.485-.71c.271-.257.621-.46 1.05-.61.429-.15.861-.226 1.298-.226.782 0 1.377.207 1.783.62.414.415.62 1.002.62 1.762v3.622h-.947v-.869c-.188.271-.46.497-.813.678-.353.18-.767.27-1.241.27-.64 0-1.155-.161-1.547-.485-.39-.33-.587-.767-.587-1.31 0-.616.249-1.071.745-1.365.497-.3 1.185-.451 2.066-.451.55 0 1.008.056 1.377.17 0-.573-.117-1.005-.35-1.299-.233-.3-.64-.451-1.219-.451-.587 0-1.17.218-1.75.654Zm1.49 3.68c.444 0 .828-.12 1.152-.361.33-.241.556-.505.677-.79v-.599c-.324-.113-.741-.169-1.253-.169-1.287 0-1.93.316-1.93.948a.82.82 0 0 0 .373.711c.248.173.575.26.981.26Zm-11.381.778v-7.9h.948l3.002 3.973 2.9-3.973h.926v7.9h-1.027V15.77l-2.697 3.634h-.249l-2.776-3.634v6.128h-1.027Zm-6.225 0V13.66h.948v8.24h-.948Zm-5.809-4.458-.485-.71c.27-.257.62-.46 1.05-.61.428-.15.86-.226 1.297-.226.783 0 1.377.207 1.784.62.414.415.62 1.002.62 1.762v3.622h-.948v-.869c-.188.271-.459.497-.812.678-.354.18-.768.27-1.242.27-.64 0-1.155-.161-1.546-.485-.391-.33-.587-.767-.587-1.31 0-.616.248-1.071.745-1.365.496-.3 1.185-.451 2.065-.451.55 0 1.009.056 1.377.17 0-.573-.116-1.005-.35-1.299-.233-.3-.64-.451-1.218-.451-.588 0-1.17.218-1.75.654Zm1.49 3.68c.444 0 .828-.12 1.151-.361.331-.241.557-.505.677-.79v-.599c-.323-.113-.74-.169-1.252-.169-1.287 0-1.93.316-1.93.948 0 .301.124.538.372.711.248.173.575.26.982.26Zm-3.448-5.125v5.903h-.949v-.835c-.451.625-1.087.937-1.907.937-.813 0-1.418-.21-1.817-.632-.399-.421-.598-1.08-.598-1.975v-3.398h.948v3.262c0 1.234.515 1.851 1.546 1.851.406 0 .767-.109 1.084-.327a2.26 2.26 0 0 0 .744-.948v-3.837h.949Zm-10.694.937v-.903h1.22v-1.5h.947v1.5h2.02v.903h-2.02v2.585c0 .572.08.974.237 1.208.158.233.418.35.78.35.353 0 .706-.14 1.06-.418l.429.7c-.376.413-.93.62-1.66.62-.579 0-1.023-.188-1.331-.564-.309-.376-.463-.925-.463-1.648v-2.833h-1.219Zm-3.731 4.966V16.03h.949v.452a.885.885 0 0 1 .485-.43 1.81 1.81 0 0 1 .722-.146c.52 0 .918.177 1.197.53l-.599.655c-.143-.195-.376-.293-.7-.293a1.03 1.03 0 0 0-.7.282 1.385 1.385 0 0 0-.405.734v4.085h-.949Zm-2.585 0V16.03h.948v5.87h-.948Zm-.124-7.776c0-.158.056-.29.17-.395a.645.645 0 0 1 .44-.158c.158 0 .293.052.406.158.12.105.18.237.18.395a.55.55 0 0 1-.18.418.554.554 0 0 1-.407.169.62.62 0 0 1-.44-.17.568.568 0 0 1-.169-.417Zm-.783-.124-3.612 7.9h-.745l-3.792-7.9h1.106l3.081 6.456 2.89-6.456h1.072Z"/>
  <path fill="#72EA9A" d="m15.814 18.552-3.088 1.816V24l3.088-1.816V18.55ZM3.646 11.65.558 13.466V17.1l3.088-1.817V11.65Z"/>
  <path fill="#1A3A96" d="M12.726 20.368.558 13.466V17.1L12.726 24v-3.632Z"/>
  <path fill="url(#fvm-logo-dark_svg__a)" d="M15.814 18.552 3.646 11.65.558 13.466l12.168 6.902 3.088-1.816Z"/>
  <path fill="url(#fvm-logo-dark_svg__b)" d="m0 13.023 3.163 1.86v3.722L0 16.745v-3.722Z"/>
  <path fill="#72EA9A" d="m12.465 5.953 3.163 1.861v3.72l-3.163-1.86v-3.72Z"/>
  <path fill="#1A3A96" d="m3.163 14.884 12.465-7.07v3.72l-12.465 7.07v-3.72Z"/>
  <path fill="url(#fvm-logo-dark_svg__c)" d="m0 13.023 12.465-7.07 3.163 1.861-12.465 7.07L0 13.024Z"/>
  <path fill="#72EA9A" d="m0 7.07 3.163 1.86v3.721L0 10.791V7.07ZM12.465 0l3.163 1.86v3.721l-3.163-1.86V0Z"/>
  <path fill="#1A3A96" d="m3.163 8.93 12.465-7.07v3.721l-12.465 7.07v-3.72Z"/>
  <path fill="url(#fvm-logo-dark_svg__d)" d="M0 7.07 12.465 0l3.163 1.86L3.163 8.93 0 7.07Z"/>
  <defs>
    <linearGradient id="fvm-logo-dark_svg__a" x1=".831" x2="17.539" y1="13.012" y2="17.643" gradientUnits="userSpaceOnUse">
      <stop offset=".5" stop-color="#5A92ED"/>
      <stop offset="1" stop-color="#71E49F"/>
    </linearGradient>
    <linearGradient id="fvm-logo-dark_svg__b" x1=".651" x2="1.953" y1="13.023" y2="18.326" gradientUnits="userSpaceOnUse">
      <stop stop-color="#72E79D"/>
      <stop offset="1" stop-color="#5C97E8"/>
    </linearGradient>
    <linearGradient id="fvm-logo-dark_svg__c" x1="20.186" x2="1.953" y1="6.233" y2="11.535" gradientUnits="userSpaceOnUse">
      <stop stop-color="#70E1A1"/>
      <stop offset="1" stop-color="#5C99E9"/>
    </linearGradient>
    <linearGradient id="fvm-logo-dark_svg__d" x1="15.349" x2="-1.767" y1="1.395" y2="6.14" gradientUnits="userSpaceOnUse">
      <stop stop-color="#5C99E9"/>
      <stop offset="1" stop-color="#72EA9A"/>
    </linearGradient>
  </defs>
</svg>
